X: 241
T: Sergt. Stack's favorite
C: anon.
O: Ireland
B: Francis O'Neill: "The Dance Music of Ireland" (1907) no. 241
R: Double jig
Z: Transcribed by Frank Nordberg - http://www.musicaviva.com
F: http://www.musicaviva.com/abc/tunes/ireland/oneill-1001/oneill-1001-024
1.abc
m: Nn3 = n o/n/ (3m/n/-n/
M: 6/8
L: 1/8
K: A
(A/B/)W||"   ~"Nc3 BcB|AGE GAB|"   ~"Nc3 dcd|(e/f/g).e (a/g/e).d|"   ~"Nc
3 BcB|AGE GAB|{d}cBA GED|EAA A2 H:|
|:(A/B/)|(c/d/e).f {a}gfg|eaf ge(d/B/)|(c/d/e).f {a}gfg|eag a2(A/B/)|(c/d
/e).f {a}gfg|eab ag(e/d/)|"   ~"Nc3 "   ~"Nd3|.e{f}.e.c d.f(e/d/)W:|
W:
W:
W: From Musica Viva - http://www.musicaviva.com
W: the Internet center for free sheet music downloads.


